;FLAVOR:Marlin
;TIME:16915
;Filament used: 34.7443m
;Layer height: 0.32
;MINX:12.269
;MINY:15.191
;MINZ:0.32
;MAXX:216.886
;MAXY:219.809
;MAXZ:23.04
;Generated with Cura_SteamEngine 4.13.1
M140 S50
M105
M190 S50
M104 S200
M105
M109 S200
M82 ;absolute extrusion mode
; Ender 3 Custom Start G-code
G92 E0 ; Reset Extruder
G28 ; Home all axes
G1 Z2.0 F3000 ; Move Z Axis up little to prevent scratching of Heat Bed
G1 X0.1 Y20 Z0.3 F5000.0 ; Move to start position
G1 X0.1 Y200.0 Z0.3 F1500.0 E15 ; Draw the first line
G1 X0.4 Y200.0 Z0.3 F5000.0 ; Move to side a little
G1 X0.4 Y20 Z0.3 F1500.0 E30 ; Draw the second line
G92 E0 ; Reset Extruder
G1 Z2.0 F3000 ; Move Z Axis up little to prevent scratching of Heat Bed
G1 X5 Y20 Z0.3 F5000.0 ; Move over to prevent blob squish
G92 E0
G92 E0
G1 F2700 E-5
;LAYER_COUNT:75
;LAYER:0
M107
G0 F6000 X23.368 Y25.504 Z0.32
;TYPE:SKIRT
G1 F2700 E0
G1 F1200 X23.986 Y24.937 E0.11158
G1 X24.952 Y24.074 E0.28391
G1 X25.651 Y23.468 E0.40699
G1 X26.451 Y22.831 E0.54304
G1 X27.13 Y22.336 E0.65483
G1 X28.217 Y21.565 E0.83213
G1 X28.939 Y21.068 E0.94875
G1 X29.822 Y20.513 E1.0875
G1 X30.545 Y20.102 E1.19814
G1 X31.743 Y19.441 E1.38018
G1 X32.523 Y19.026 E1.49772
G1 X33.431 Y18.59 E1.63173
G1 X34.252 Y18.237 E1.75062
G1 X35.526 Y17.712 E1.93394
G1 X36.214 Y17.437 E2.03252
G1 X37.24 Y17.078 E2.17713
G1 X38.064 Y16.83 E2.29161
G1 X39.273 Y16.482 E2.45899
G1 X40.194 Y16.231 E2.58599
G1 X41.211 Y16 E2.72474
G1 X41.977 Y15.861 E2.82831
G1 X43.483 Y15.606 E3.03152
G1 X44.178 Y15.499 E3.12507
G1 X45.182 Y15.385 E3.25951
G1 X45.89 Y15.334 E3.35394
G1 X47.368 Y15.25 E3.55089
G1 X48.25 Y15.211 E3.66835
G1 X48.612 Y15.201 E3.71653
G1 X49.455 Y15.191 E3.82869
G1 X179.874 Y15.193 E21.1797
G1 X180.583 Y15.203 E21.27404
G1 X180.942 Y15.213 E21.32182
G1 X181.642 Y15.243 E21.41503
G1 X183.304 Y15.337 E21.6365
G1 X183.975 Y15.385 E21.726
G1 X184.996 Y15.5 E21.86269
G1 X185.616 Y15.596 E21.94616
G1 X187.121 Y15.851 E22.14924
G1 X187.304 Y15.883 E22.17396
G1 X188.022 Y16.016 E22.2711
G1 X189.045 Y16.25 E22.41072
G1 X189.855 Y16.473 E22.52249
G1 X191.229 Y16.871 E22.7128
G1 X191.917 Y17.078 E22.80839
G1 X192.962 Y17.443 E22.95565
G1 X193.698 Y17.739 E23.06119
G1 X195.115 Y18.329 E23.2654
G1 X195.753 Y18.604 E23.35783
G1 X196.324 Y18.867 E23.44147
G1 X196.767 Y19.094 E23.50769
G1 X197.426 Y19.448 E23.60721
G1 X198.756 Y20.184 E23.80944
G1 X199.368 Y20.534 E23.90324
G1 X200.273 Y21.105 E24.0456
G1 X200.933 Y21.562 E24.1524
G1 X202.017 Y22.33 E24.32915
G1 X202.729 Y22.85 E24.44644
G1 X203.544 Y23.501 E24.58522
G1 X204.237 Y24.105 E24.70752
G1 X205.141 Y24.914 E24.86891
G1 X205.843 Y25.56 E24.99583
G1 X206.583 Y26.3 E25.13506
G1 X207.13 Y26.898 E25.24288
G1 X208.145 Y28.035 E25.44566
G1 X208.612 Y28.575 E25.54064
G1 X209.251 Y29.379 E25.67727
G1 X209.745 Y30.057 E25.78888
G1 X210.485 Y31.1 E25.95901
G1 X211.007 Y31.857 E26.08135
G1 X211.573 Y32.759 E26.22302
G1 X211.971 Y33.46 E26.33027
G1 X212.633 Y34.658 E26.51236
G1 X213.052 Y35.445 E26.63098
G1 X213.488 Y36.353 E26.76499
G1 X213.841 Y37.174 E26.88388
G1 X214.371 Y38.459 E27.06881
G1 X214.646 Y39.149 E27.16763
G1 X214.996 Y40.149 E27.30858
G1 X215.24 Y40.959 E27.42113
G1 X215.654 Y42.401 E27.62072
G1 X215.851 Y43.129 E27.72106
G1 X216.083 Y44.156 E27.86114
G1 X216.217 Y44.898 E27.96145
G1 X216.467 Y46.376 E28.16088
G1 X216.576 Y47.074 E28.25486
G1 X216.695 Y48.126 E28.39571
G1 X216.756 Y49.007 E28.5132
G1 X216.838 Y50.501 E28.71227
G1 X216.866 Y51.16 E28.80002
G1 X216.876 Y51.52 E28.84793
G1 X216.886 Y52.35 E28.95836
G1 X216.884 Y182.805 E46.31417
G1 X216.873 Y183.551 E46.41343
G1 X216.864 Y183.871 E46.45602
G1 X216.84 Y184.466 E46.53524
G1 X216.756 Y185.983 E46.73737
G1 X216.695 Y186.872 E46.85592
G1 X216.58 Y187.901 E46.99367
G1 X216.445 Y188.766 E47.11015
G1 X216.194 Y190.233 E47.30815
G1 X216.061 Y190.949 E47.40504
G1 X215.828 Y191.966 E47.54385
G1 X215.605 Y192.776 E47.65562
G1 X215.203 Y194.165 E47.848
G1 X214.996 Y194.85 E47.9432
G1 X214.645 Y195.853 E48.08457
G1 X214.341 Y196.615 E48.19372
G1 X213.75 Y198.036 E48.39847
G1 X213.478 Y198.667 E48.48989
G1 X213.179 Y199.309 E48.58411
G1 X212.982 Y199.693 E48.64152
G1 X212.641 Y200.328 E48.73742
G1 X211.998 Y201.494 E48.91457
G1 X211.536 Y202.302 E49.03839
G1 X210.978 Y203.187 E49.17758
G1 X210.478 Y203.909 E49.29442
G1 X209.653 Y205.07 E49.48391
G1 X209.224 Y205.656 E49.58053
G1 X208.561 Y206.486 E49.72186
G1 X207.991 Y207.138 E49.83708
G1 X207.157 Y208.07 E50.00347
G1 X206.524 Y208.759 E50.12794
G1 X205.785 Y209.498 E50.26698
G1 X205.169 Y210.063 E50.37819
G1 X204.203 Y210.926 E50.55052
G1 X203.512 Y211.525 E50.67219
G1 X202.713 Y212.162 E50.80813
G1 X202.025 Y212.664 E50.92144
G1 X200.938 Y213.435 E51.09874
G1 X200.263 Y213.901 E51.20786
G1 X199.36 Y214.469 E51.34979
G1 X198.576 Y214.915 E51.46979
G1 X197.35 Y215.591 E51.65605
G1 X196.672 Y215.954 E51.75836
G1 X195.728 Y216.41 E51.89784
G1 X194.985 Y216.729 E52.00541
G1 X193.569 Y217.313 E52.20919
G1 X192.898 Y217.579 E52.30522
G1 X191.92 Y217.921 E52.44306
G1 X191.297 Y218.11 E52.52968
G1 X189.881 Y218.518 E52.72573
G1 X188.95 Y218.772 E52.85411
G1 X187.926 Y219.004 E52.9938
G1 X187.19 Y219.138 E53.09333
G1 X185.864 Y219.363 E53.27226
G1 X184.98 Y219.501 E53.39129
G1 X183.946 Y219.618 E53.52973
G1 X183.147 Y219.673 E53.63629
G1 X181.609 Y219.759 E53.84122
G1 X180.904 Y219.789 E53.9351
G1 X180.54 Y219.799 E53.98354
G1 X179.698 Y219.809 E54.09557
G1 X49.282 Y219.807 E71.44619
G1 X48.568 Y219.797 E71.54119
G1 X48.208 Y219.787 E71.5891
G1 X47.346 Y219.749 E71.70389
G1 X46.129 Y219.681 E71.86606
G1 X45.196 Y219.616 E71.99048
G1 X44.143 Y219.498 E72.13145
G1 X43.345 Y219.372 E72.23893
G1 X41.877 Y219.121 E72.43707
G1 X41.138 Y218.984 E72.53706
G1 X40.13 Y218.753 E72.67465
G1 X39.298 Y218.525 E72.78942
G1 X37.901 Y218.122 E72.98285
G1 X37.218 Y217.915 E73.0778
G1 X36.211 Y217.562 E73.21977
G1 X35.415 Y217.243 E73.33385
G1 X34.235 Y216.754 E73.50379
G1 X33.348 Y216.371 E73.63233
G1 X32.423 Y215.924 E73.769
G1 X31.717 Y215.544 E73.87567
G1 X30.419 Y214.826 E74.07302
G1 X29.782 Y214.462 E74.17062
G1 X28.862 Y213.882 E74.31531
G1 X28.195 Y213.418 E74.42341
G1 X26.976 Y212.553 E74.62227
G1 X26.426 Y212.15 E74.71298
G1 X25.611 Y211.499 E74.85176
G1 X24.918 Y210.895 E74.97406
G1 X24.014 Y210.086 E75.13545
G1 X23.312 Y209.44 E75.26237
G1 X22.572 Y208.7 E75.4016
G1 X22.025 Y208.102 E75.50942
G1 X21.011 Y206.966 E75.71201
G1 X20.543 Y206.425 E75.80718
G1 X19.901 Y205.617 E75.94448
G1 X19.41 Y204.943 E76.05542
G1 X18.57 Y203.757 E76.24877
G1 X18.152 Y203.15 E76.34682
G1 X17.586 Y202.247 E76.4886
G1 X17.173 Y201.521 E76.59973
G1 X16.534 Y200.362 E76.7758
G1 X16.111 Y199.569 E76.89538
G1 X15.661 Y198.63 E77.03391
G1 X15.33 Y197.856 E77.1459
G1 X14.767 Y196.495 E77.34185
G1 X14.501 Y195.825 E77.43775
G1 X14.157 Y194.842 E77.57631
G1 X13.968 Y194.219 E77.66292
G1 X13.56 Y192.803 E77.85897
G1 X13.306 Y191.872 E77.98736
G1 X13.074 Y190.848 E78.12705
G1 X12.94 Y190.112 E78.22657
G1 X12.715 Y188.786 E78.40551
G1 X12.578 Y187.907 E78.52386
G1 X12.461 Y186.874 E78.66217
G1 X12.409 Y186.139 E78.7602
G1 X12.319 Y184.538 E78.97354
G1 X12.289 Y183.829 E79.06795
G1 X12.279 Y183.467 E79.11612
G1 X12.269 Y182.623 E79.22842
G1 X12.271 Y52.204 E96.57943
G1 X12.281 Y51.491 E96.6743
G1 X12.291 Y51.132 E96.72208
G1 X12.329 Y50.268 E96.83714
G1 X12.397 Y49.051 E96.9993
G1 X12.462 Y48.118 E97.12373
G1 X12.582 Y47.056 E97.26592
G1 X12.711 Y46.241 E97.37569
G1 X12.962 Y44.77 E97.57423
G1 X13.095 Y44.053 E97.67124
G1 X13.33 Y43.029 E97.81102
G1 X13.538 Y42.272 E97.91546
G1 X13.908 Y40.987 E98.09337
G1 X14.173 Y40.112 E98.215
G1 X14.518 Y39.126 E98.35397
G1 X14.83 Y38.346 E98.46574
G1 X15.328 Y37.147 E98.63847
G1 X15.718 Y36.246 E98.76908
G1 X16.171 Y35.311 E98.90731
G1 X16.523 Y34.658 E99.006
G1 X17.236 Y33.369 E99.20198
G1 X17.608 Y32.718 E99.30173
G1 X18.169 Y31.826 E99.44192
G1 X18.67 Y31.102 E99.55906
G1 X19.498 Y29.936 E99.74931
G1 X19.925 Y29.352 E99.84556
G1 X20.595 Y28.514 E99.9883
G1 X21.164 Y27.862 E100.10343
G1 X21.998 Y26.93 E100.26982
G1 X22.629 Y26.243 E100.39392
G1 X23.368 Y25.504 E100.53297
G0 F6000 X24.045 Y26.24
G1 F1200 X24.652 Y25.683 E100.64257
G1 X25.758 Y24.697 E100.83969
G1 X26.305 Y24.224 E100.9359
G1 X27.041 Y23.638 E101.06107
G1 X27.576 Y23.247 E101.14923
G1 X28.796 Y22.381 E101.34827
G1 X29.505 Y21.892 E101.46285
G1 X30.318 Y21.382 E101.59054
G1 X31.028 Y20.978 E101.69922
G1 X32.39 Y20.228 E101.90607
G1 X32.991 Y19.909 E101.9966
G1 X33.827 Y19.508 E102.11995
G1 X34.634 Y19.161 E102.23682
G1 X35.897 Y18.64 E102.41858
G1 X36.585 Y18.365 E102.51716
G1 X37.529 Y18.035 E102.6502
G1 X38.341 Y17.791 E102.763
G1 X39.722 Y17.395 E102.95413
G1 X40.456 Y17.196 E103.05531
G1 X41.392 Y16.983 E103.18302
G1 X42.145 Y16.846 E103.28485
G1 X43.454 Y16.623 E103.4615
G1 X44.33 Y16.487 E103.57944
G1 X45.254 Y16.383 E103.70315
G1 X46.143 Y16.32 E103.82172
G1 X47.583 Y16.24 E104.01359
G1 X48.292 Y16.21 E104.108
G1 X48.625 Y16.201 E104.15232
G1 X49.455 Y16.191 E104.26275
G1 X179.86 Y16.193 E121.61191
G1 X180.569 Y16.203 E121.70624
G1 X180.899 Y16.213 E121.75016
G1 X181.749 Y16.25 E121.86336
G1 X183.233 Y16.334 E122.0611
G1 X183.904 Y16.382 E122.1506
G1 X184.843 Y16.488 E122.27632
G1 X185.463 Y16.584 E122.35979
G1 X187.122 Y16.866 E122.58367
G1 X187.84 Y16.999 E122.68082
G1 X188.781 Y17.215 E122.80926
G1 X189.578 Y17.434 E122.91923
G1 X190.941 Y17.829 E123.10802
G1 X191.629 Y18.036 E123.20361
G1 X192.59 Y18.372 E123.33905
G1 X193.314 Y18.663 E123.44286
G1 X194.719 Y19.247 E123.64529
G1 X195.357 Y19.522 E123.73772
G1 X195.882 Y19.765 E123.81468
G1 X196.295 Y19.975 E123.87632
G1 X196.942 Y20.323 E123.97406
G1 X198.259 Y21.052 E124.17433
G1 X198.871 Y21.402 E124.26812
G1 X199.704 Y21.927 E124.39912
G1 X200.355 Y22.378 E124.50448
G1 X201.439 Y23.146 E124.68122
G1 X202.138 Y23.657 E124.79642
G1 X202.887 Y24.255 E124.92393
G1 X203.57 Y24.85 E125.04444
G1 X204.596 Y25.77 E125.22778
G1 X205.166 Y26.295 E125.33088
G1 X205.846 Y26.977 E125.45901
G1 X206.385 Y27.565 E125.56513
G1 X207.263 Y28.547 E125.74038
G1 X207.855 Y29.23 E125.86063
G1 X208.443 Y29.969 E125.98627
G1 X208.929 Y30.636 E126.09607
G1 X209.764 Y31.815 E126.28827
G1 X210.183 Y32.424 E126.38662
G1 X210.704 Y33.254 E126.517
G1 X211.095 Y33.944 E126.62251
G1 X211.85 Y35.312 E126.83039
G1 X212.169 Y35.913 E126.92091
G1 X212.57 Y36.749 E127.04426
G1 X212.917 Y37.556 E127.16113
G1 X213.442 Y38.829 E127.34433
G1 X213.717 Y39.519 E127.44315
G1 X214.039 Y40.44 E127.57295
G1 X214.279 Y41.236 E127.68356
G1 X214.689 Y42.662 E127.88096
G1 X214.886 Y43.39 E127.9813
G1 X215.099 Y44.335 E128.11018
G1 X215.231 Y45.066 E128.209
G1 X215.479 Y46.531 E128.40668
G1 X215.588 Y47.229 E128.50067
G1 X215.698 Y48.197 E128.63028
G1 X215.747 Y48.894 E128.72324
G1 X215.839 Y50.544 E128.9431
G1 X215.867 Y51.203 E129.03085
G1 X215.876 Y51.534 E129.0749
G1 X215.886 Y52.35 E129.18347
G1 X215.884 Y182.791 E146.53741
G1 X215.873 Y183.537 E146.63667
G1 X215.865 Y183.83 E146.67567
G1 X215.832 Y184.605 E146.77887
G1 X215.748 Y186.091 E146.97688
G1 X215.698 Y186.802 E147.07171
G1 X215.591 Y187.749 E147.1985
G1 X215.459 Y188.598 E147.31281
G1 X215.211 Y190.05 E147.50878
G1 X215.078 Y190.766 E147.60566
G1 X214.863 Y191.702 E147.73343
G1 X214.644 Y192.499 E147.8434
G1 X214.245 Y193.876 E148.03413
G1 X214.038 Y194.561 E148.12933
G1 X213.716 Y195.483 E148.25926
G1 X213.417 Y196.232 E148.36655
G1 X212.832 Y197.64 E148.5694
G1 X212.56 Y198.271 E148.66082
G1 X212.285 Y198.862 E148.74754
G1 X212.1 Y199.222 E148.80139
G1 X211.765 Y199.845 E148.89549
G1 X211.026 Y201.183 E149.09885
G1 X210.669 Y201.805 E149.19426
G1 X210.155 Y202.619 E149.32234
G1 X209.662 Y203.331 E149.43756
G1 X208.948 Y204.338 E149.60179
G1 X208.417 Y205.065 E149.72156
G1 X207.807 Y205.829 E149.85163
G1 X207.246 Y206.471 E149.96505
G1 X206.306 Y207.52 E150.15245
G1 X205.789 Y208.082 E150.25404
G1 X205.108 Y208.762 E150.38208
G1 X204.503 Y209.317 E150.4913
G1 X203.537 Y210.18 E150.66364
G1 X202.858 Y210.769 E150.78322
G1 X202.122 Y211.355 E150.90839
G1 X201.446 Y211.848 E151.0197
G1 X200.237 Y212.704 E151.21678
G1 X199.695 Y213.078 E151.30439
G1 X198.864 Y213.601 E151.43502
G1 X198.093 Y214.04 E151.55305
G1 X196.878 Y214.709 E151.73758
G1 X196.2 Y215.072 E151.8399
G1 X195.331 Y215.492 E151.9683
G1 X194.603 Y215.805 E152.07373
G1 X193.2 Y216.384 E152.27566
G1 X192.529 Y216.65 E152.37169
G1 X191.63 Y216.964 E152.49837
G1 X191.007 Y217.153 E152.58499
G1 X189.433 Y217.605 E152.80286
G1 X188.688 Y217.807 E152.90555
G1 X187.746 Y218.021 E153.03407
G1 X187.023 Y218.152 E153.13182
G1 X185.536 Y218.403 E153.33245
G1 X184.827 Y218.513 E153.42791
G1 X183.875 Y218.62 E153.55536
G1 X183.09 Y218.675 E153.66005
G1 X181.567 Y218.76 E153.86299
G1 X180.862 Y218.79 E153.95687
G1 X180.526 Y218.799 E154.00159
G1 X179.698 Y218.809 E154.11175
G1 X49.296 Y218.807 E171.4605
G1 X48.582 Y218.797 E171.5555
G1 X48.251 Y218.787 E171.59956
G1 X47.401 Y218.75 E171.71275
G1 X46.022 Y218.672 E171.89651
G1 X45.266 Y218.619 E171.99733
G1 X44.297 Y218.509 E172.12708
G1 X43.513 Y218.386 E172.23266
G1 X42.059 Y218.137 E172.42891
G1 X41.32 Y218 E172.52891
G1 X40.393 Y217.789 E172.65539
G1 X39.736 Y217.61 E172.74598
G1 X38.191 Y217.165 E172.95989
G1 X37.508 Y216.958 E173.05484
G1 X36.582 Y216.633 E173.1854
G1 X35.797 Y216.319 E173.29788
G1 X34.442 Y215.756 E173.49309
G1 X33.746 Y215.454 E173.59403
G1 X32.895 Y215.042 E173.71982
G1 X32.201 Y214.669 E173.82464
G1 X30.915 Y213.958 E174.02014
G1 X30.278 Y213.594 E174.11774
G1 X29.432 Y213.06 E174.25084
G1 X28.773 Y212.602 E174.35761
G1 X27.567 Y211.746 E174.55436
G1 X27.017 Y211.343 E174.64508
G1 X26.268 Y210.745 E174.77259
G1 X25.585 Y210.15 E174.8931
G1 X24.559 Y209.23 E175.07644
G1 X23.989 Y208.705 E175.17954
G1 X23.309 Y208.023 E175.30767
G1 X22.77 Y207.435 E175.41379
G1 X21.768 Y206.312 E175.61402
G1 X21.3 Y205.771 E175.70919
G1 X20.709 Y205.027 E175.8356
G1 X20.226 Y204.364 E175.94473
G1 X19.394 Y203.189 E176.13627
G1 X18.976 Y202.582 E176.23432
G1 X18.455 Y201.752 E176.3647
G1 X18.049 Y201.038 E176.47397
G1 X17.328 Y199.727 E176.67302
G1 X16.994 Y199.099 E176.76766
G1 X16.579 Y198.235 E176.89518
G1 X16.253 Y197.473 E177.00544
G1 X15.761 Y196.286 E177.17639
G1 X15.431 Y195.456 E177.29522
G1 X15.114 Y194.552 E177.42267
G1 X14.925 Y193.929 E177.50928
G1 X14.473 Y192.355 E177.72715
G1 X14.271 Y191.61 E177.82984
G1 X14.057 Y190.668 E177.95836
G1 X13.926 Y189.945 E178.05612
G1 X13.675 Y188.457 E178.25688
G1 X13.566 Y187.754 E178.35152
G1 X13.459 Y186.804 E178.47871
G1 X13.396 Y185.902 E178.59901
G1 X13.318 Y184.496 E178.78635
G1 X13.288 Y183.787 E178.88076
G1 X13.279 Y183.454 E178.92508
G1 X13.269 Y182.623 E179.03564
G1 X13.271 Y52.218 E196.38479
G1 X13.281 Y51.505 E196.47966
G1 X13.291 Y51.174 E196.52372
G1 X13.328 Y50.323 E196.63704
G1 X13.406 Y48.943 E196.82093
G1 X13.459 Y48.188 E196.92162
G1 X13.57 Y47.211 E197.05244
G1 X13.697 Y46.408 E197.1606
G1 X13.945 Y44.953 E197.35696
G1 X14.078 Y44.236 E197.45398
G1 X14.294 Y43.293 E197.58269
G1 X14.499 Y42.549 E197.68536
G1 X14.869 Y41.264 E197.86326
G1 X15.13 Y40.403 E197.98296
G1 X15.447 Y39.496 E198.11078
G1 X15.689 Y38.888 E198.19784
G1 X16.324 Y37.36 E198.41798
G1 X16.635 Y36.644 E198.52184
G1 X17.052 Y35.784 E198.649
G1 X17.398 Y35.142 E198.74602
G1 X18.104 Y33.865 E198.94015
G1 X18.476 Y33.214 E199.0399
G1 X18.992 Y32.393 E199.16891
G1 X19.485 Y31.68 E199.28424
G1 X20.305 Y30.526 E199.47258
G1 X20.732 Y29.942 E199.56883
G1 X21.348 Y29.171 E199.70012
G1 X21.909 Y28.529 E199.81355
G1 X22.743 Y27.597 E199.97994
G1 X23.365 Y26.92 E200.10225
G1 X24.045 Y26.24 E200.23019
G0 F6000 X24.722 Y26.976
G1 F1200 X25.319 Y26.429 E200.33791
G1 X26.412 Y25.454 E200.53277
G1 X26.959 Y24.981 E200.62898
G1 X27.631 Y24.446 E200.74326
G1 X28.287 Y23.968 E200.85124
G1 X29.502 Y23.107 E201.04936
G1 X30.071 Y22.716 E201.14121
G1 X30.814 Y22.25 E201.25789
G1 X31.511 Y21.854 E201.36454
G1 X32.859 Y21.111 E201.56932
G1 X33.46 Y20.792 E201.65984
G1 X34.223 Y20.426 E201.77242
G1 X34.865 Y20.149 E201.86545
G1 X36.268 Y19.569 E202.06742
G1 X36.956 Y19.294 E202.166
